X: 10
T:Avon Jig
% Nottingham Music Database
S:Pauline Wilson, via Phil Rowe
M:6/8
K:Em
B|"Em"e2e B2B|GAB E3|"D7"FED AGF|FED AGF|
"Em"e2e B2B|"Em"GAB E3|"D7"FED A2A|"Em"GEE E2::
D|"G"G2G B2B|"D7"ABA D3|"G"G2G B2B|"Am"d2d "D7"cBA|"G"G2G B2B|"D7"ABA D3|\
"Em"EFG "A7"FED|"Em"E3 -E2:|<end>
<start>
